X:1
T:In illo tempore
T:In illo tempore
T:Johannes Mouton
C:Johannes Mouton
%%score [ 1 2 3 4 ]
L:1/8
Q:1/4=120
M:2/2
K:F
V:1 alto1 nm="Soprano"
V:2 alto nm="Alto"
V:3 tenor nm="Tenor"
V:4 bass nm="Bass"
V:1
 F8 x8 | F8 | B8 | G8 | A6 F2 | F8 | z8 | F6 D2 | D8 || F4 F4 | c6 G2 | B4 B2 B2 | A2 F2 A4 | G8- | %14
w: |In|il-|lo|tem- po-|re,||tem- po|re:|Post- quam|con- sum-|ma- ti sunt|di- es oc-|to,|
 G4 z4 | A4 c4- | c2 c2 B3 B | B2 B2 A4 | G4 z2 c2 | d2 B4 AG | A3 G F3 E | G4 z4 | F4 B4- | %23
w: _|ut cir-|* cum- ci- de-|re- tur pu-|er, pu-|||er,|vo- ca-|
 B2 A2 G2 F2 | B2 A2 G4- | G4 A4- | A4 F4- | F8- | F4 G4- | G2 G2 G4 | A4 B4- | B2 A2 G4 | F4 E4 |: %33
w: * tum est no-|men e- ius|_ Je-|* sus,|_|* quod|_ vo- ca-|tum est|_ ab an-|ge- lo|
 c6 c2 | d4 c4 | B4 G4 | A4 G4 | G2 F2 F4- | F2 ED E4 | F8 :| %40
w: pri- us-|quam in|u- te-|ro con-|ci- pe- re-||tur.|
V:2
"^2" z8 B,8 | z8 | B,8 | _E8 | C8 | D6 B,2 | B,4 z4 | A,6 B,2 | B,8 || z8 | C4 C4 | G6 D2 | %12
w: ||In|il-|lo|tem- po-|re,|tem- po-|re:||Post- quam|con- sum-|
 F4 F2 F2 | E2 C2 E4 | D8 | z8 | E4 G2 G2 | F3 F F2 F2 | E8 | D8 | z8 | z4 C4 | F6"^b" E2 | D6 C2 | %24
w: ma- ti sunt|di- es oc-|to,||ut cir- cum-|ci- de- re- tur|pu-|er,||vo-|ca- tum|est no-|
 B,2 C2 D3 C | D4 E4 | C4 D4- | D4 C4- | C4 E4- | E2 E2 E4 | E4 F4- | F2 E2 D4 | D4 G4 |: F6 F2 | %34
w: |men e-|ius Je-|* sus,|_ quod|_ vo- ca-|tum est|_ ab an-|ge- lo|pri- us-|
 F4 F4 | D4 E4 | F4 E4 | D4 C4 | B,4 C4 | D8 :| %40
w: quam in|u- te-|ro con-|ci- pe-|re- *|tur.|
V:3
"^6" z8 F,8 | z8 | z8 | z8 | F,8 | B,8 | G,4 A,4- | A,2 F,2 F,4- | F,8 || z8 | z8 | z8 | F,4 F,4 | %13
w: ||||In|il-|lo tem-|* po- re:|_||||Post- quam|
 C6 G,2 | B,4 B,2 B,2 | A,2 F,2 A,4 | G,8 | z4 A,4 | C6 C2 | B,3 B, B,2 B,2 | A,8 | G,4 z4 | %22
w: con- sum-|ma- ti sunt|di- es oc-|to,|ut|cir- cum-|ci- de- re- tur|pu-|er,|
 z4 F,4 | B,6 A,2 | G,2 F,2 B,2 A,2 | G,4 C4 | F,4 B,4- | B,4 A,4- | A,4 C4- | C2 C2 C4 | C4 D4- | %31
w: vo-|ca- tum|est no- * men|e- *|ius Je-|* sus,|_ quod|_ vo- ca-|tum est|
 D2 C2 B,4 | D4 C4 |: A,6 A,2 | B,4 A,4 | B,4 C4 | F,4 z4 | z4 A,4 | B,3 A, G,4 | B,8 :| %40
w: _ ab an-|ge- lo|pri- us-|quam in|u- te-|ro|con-|ci- pe- re-|tur.|
V:4
"^8" z8 B,,8 | z8 | z8 | z8 | z8 | B,,8 | _E,4 C,4 | D,6 B,,2 | B,,8 || z8 | z8 | z8 | z8 | %13
w: |||||In|il- lo|tem- po-|re:|||||
 C,4 C,4 | G,6 D,2 | F,4 F,2 F,2 | E,2 C,2 _E,4 | D,8 | z4 E,4 | G,6 G,2 | F,3 F, F,2 F,2 | E,8 | %22
w: Post- quam|con- sum-|ma- ti sunt|di- es oc-|to|ut|cir- cum-|ci- de- re- tur|pu-|
 D,8 | z8 | z8 | z8 | z4 B,,4- | B,,4 F,,4- | F,,4 C,4- | C,2 C,2 C,4 | C,4 B,,4- | %31
w: er,||||Je-|* sus,|_ quod|_ vo- ca-|tum est|
 B,,2 B,,2 B,,4 | B,,4 C,4 |: F,6 F,2 | B,,4 F,4 | G,4 C,4 | C8 | B,4 F,4 | G,4 C,4 | B,,8 :| %40
w: _ ab an-|ge- lo|pri- us-|quam in|u- te-|ro|con- ci-|pe- re-|tur.|

